X: 14
T: Cat's Meow, The
C: Joanie Madden
Z: Fernando Durbán Galnares
S: https://thesession.org/tunes/342#setting47571
R: jig
M: 6/8
L: 1/8
K: Dmaj
|:"D"FAd fef|"D"afe dBA|"G"BAB BAF|"A"dAF E2A|
"D"FAd fef|"D"afe dBA|"G"B/c/de fdB|1 "A"AFE "D"D2A:|2 "A"AFE "D"D2e||
|:"D"fdB AFA|"D"DFA def|"G"gag ged|"A"ced cBA|
"D"fdB AFA|"D"DFA def|"G"gec age|1 "A"edc "D"d2e:|2 "A"edc "D"d2B||
|:"D"Adf aba|"D"agf agf|"A"Ace gag|"A"gfe gfe|
"D"fdf "G"geg|"D"afa "G"bag|"D"f/g/af "A"gec|1 "A"edc "D"d2B:|2 "A"edc "D"d3||

